X:160
T:Nigger Quadrilles #3. Le4.160, The
Q:3/8=100
L:1/8
B:L.Leadley MS#4 c1850
Z:vmp.Mike Hicken 2016 www.village-music-project.org.uk
N: * This note is not clear in the original.
M:6/8
K:D
!f!d|d2d' c'2b|b2a f2a|a2g f2e|f3-f2d|
d2d' c'2b|b2a f2a|a2g f2e|d3-d2 !fermata!||
d|ggg bag|=ce2- efg|dBG GFG|E3- E2D|
GGG BAG|=ce2- efg|dBG ABA|G3- G2||
!f!d|d2d' c'2b|b2a f2a|a2g f2e|f3- f2d|
d2d' c'2b|b2a f2a|a2g f2e|d3- d2||
!p!d|dBd def|g2e g2e|dBG GFG|E3- E2D|
GGG BAG|=ce2- efg|dBG ABA|G3-G2 "_D.C."|]

